icons/evolvere-blue-folders-flat-vivid-dark-fallback/apps/64/lazarus.svg

<?xml version="1.0" encoding="UTF-8" standalone="no"?>
<!-- Created with Inkscape (http://www.inkscape.org/) -->

<svg
   xmlns:dc="http://purl.org/dc/elements/1.1/"
   xmlns:cc="http://creativecommons.org/ns#"
   xmlns:rdf="http://www.w3.org/1999/02/22-rdf-syntax-ns#"
   xmlns:svg="http://www.w3.org/2000/svg"
   xmlns="http://www.w3.org/2000/svg"
   xmlns:sodipodi="http://sodipodi.sourceforge.net/DTD/sodipodi-0.dtd"
   xmlns:inkscape="http://www.inkscape.org/namespaces/inkscape"
   width="64"
   height="64"
   id="svg13094"
   version="1.1"
   inkscape:version="0.48.4 r9939"
   sodipodi:docname="lazarus.svg">
  <sodipodi:namedview
     id="base"
     pagecolor="#ffffff"
     bordercolor="#666666"
     borderopacity="1.0"
     inkscape:pageopacity="0"
     inkscape:pageshadow="2"
     inkscape:zoom="11.313709"
     inkscape:cx="40.039999"
     inkscape:cy="31.629328"
     inkscape:document-units="px"
     inkscape:current-layer="svg13094"
     showgrid="true"
     inkscape:snap-bbox="true"
     inkscape:bbox-paths="true"
     inkscape:bbox-nodes="true"
     inkscape:snap-bbox-edge-midpoints="true"
     inkscape:snap-bbox-midpoints="true"
     inkscape:object-paths="true"
     inkscape:snap-intersection-paths="true"
     inkscape:object-nodes="true"
     inkscape:snap-smooth-nodes="true"
     inkscape:snap-midpoints="true"
     inkscape:snap-object-midpoints="true"
     inkscape:snap-center="true"
     showguides="false"
     inkscape:guide-bbox="true"
     inkscape:window-width="1920"
     inkscape:window-height="1025"
     inkscape:window-x="-2"
     inkscape:window-y="32"
     inkscape:window-maximized="1"
     inkscape:snap-global="false"
     fit-margin-top="0"
     fit-margin-left="0"
     fit-margin-right="0"
     fit-margin-bottom="0"
     showborder="true"
     inkscape:showpageshadow="false"
     inkscape:snap-page="true">
    <inkscape:grid
       type="xygrid"
       id="grid3075"
       empspacing="5"
       visible="true"
       enabled="true"
       snapvisiblegridlinesonly="true"
       originx="1.6362304e-08px"
       originy="18px" />
    <sodipodi:guide
       orientation="0,1"
       position="-11,30"
       id="guide9148" />
    <sodipodi:guide
       orientation="1,0"
       position="32,70"
       id="guide9150" />
  </sodipodi:namedview>
  <defs
     id="defs13096" />
  <metadata
     id="metadata13099">
    <rdf:RDF>
      <cc:Work
         rdf:about="">
        <dc:format>image/svg+xml</dc:format>
        <dc:type
           rdf:resource="http://purl.org/dc/dcmitype/StillImage" />
        <dc:title />
      </cc:Work>
    </rdf:RDF>
  </metadata>
  <path
     id="path6538"
     d="m 0,4 0,30 0,28 2,2 30,0 30,0 2,-2 L 64,34 64,4 32,4 0,4 z"
     style="color:#000000;fill:#e4ae00;fill-opacity:1;fill-rule:nonzero;stroke:none;stroke-width:2.28571415000000000;marker:none;visibility:visible;display:inline;overflow:visible;enable-background:accumulate"
     inkscape:connector-curvature="0" />
  <path
     style="color:#000000;fill:#ffdb42;fill-opacity:1;fill-rule:nonzero;stroke:none;marker:none;visibility:visible;display:inline;overflow:visible;enable-background:accumulate"
     d="M 2 0 L 0 1 L 0 4 L 19.5625 4 L 39.125 4 L 64 4 L 64 1 L 62 0 L 39.125 0 L 19.5625 0 L 2 0 z "
     id="path6688" />
  <path
     d="M 64,6 62,4 64,3 z"
     id="path3028"
     style="fill:#f2c521;fill-opacity:1"
     inkscape:connector-curvature="0" />
  <g
     id="g3043"
     inkscape:export-filename="folder.png"
     inkscape:export-xdpi="90"
     inkscape:export-ydpi="90"
     transform="translate(-0.62500009,0.082283)" />
  <g
     id="scalable"
     transform="matrix(1.0385892,0,0,1.0385892,1214.7222,1878.8121)"
     inkscape:label="#g3701"
     style="fill:#ffffff" />
  <path
     style="fill:#ffe067;fill-opacity:1;fill-rule:nonzero"
     d="M 0,3 0,6 2,4 z"
     id="path4298"
     inkscape:connector-curvature="0"
     sodipodi:nodetypes="cccc" />
  <path
     style="fill:#1d0000;fill-opacity:0.38675022;stroke:none"
     d="m 32.029347,12.301365 c 0.31314,1.535942 0.655809,2.805818 0.737637,4.320446 -0.262623,0.02929 -0.519575,0.06404 -0.790326,0.131722 -4.318189,1.079546 -0.838488,3.069501 -0.210753,4.952707 1.178449,3.535344 -1.636805,4.388015 2.845172,6.111852 8.125955,0.423294 5.891692,-9.40766 0.342475,-11.011871 -0.761486,-2.085 -1.268568,-3.437565 -2.924205,-4.504856 z m -10.932839,2.976893 c -0.877482,1.649785 -0.712672,3.026492 -0.395163,5.03174 -2.587332,3.825202 -1.873987,10.933698 4.109694,10.089824 1.989979,-0.31173 3.632545,-1.308348 4.21507,-3.055925 0.508917,-1.52675 -1.918899,-3.394175 -2.634419,-4.109694 -0.945674,-0.945674 0.445655,-3.359983 -1.053767,-4.109693 -1.1612,-0.5806 -2.166731,-0.595195 -3.003238,-0.237098 -0.508388,-1.170306 -0.825154,-2.311998 -1.238177,-3.609154 z m 27.47699,5.505936 c 0.26027,1.276612 0.5215,2.35877 0.658604,3.556465 -0.292527,0.02383 -0.58676,0.153996 -0.922046,0.263442 -2.897915,0.94595 -2.01699,2.947332 -4.304454,6.023548 -1.957332,2.63225 1.347229,4.582153 3.514129,5.304454 6.292883,2.097628 6.489716,-6.99253 3.951628,-10.379611 l 0.131721,0 c -0.823559,-2.25302 -1.298833,-3.652585 -3.029582,-4.768298 z m -38.409829,9.826382 c -0.476561,2.665156 0.437097,4.160143 1.765062,5.321527 -0.86231,6.491143 8.345734,9.741507 11.354344,4.583889 0.497601,-3.736741 -7.936834,-9.820239 -10.590363,-6.665081 -1.550458,-0.625487 -2.08336,-1.911808 -2.529043,-3.240335 z m 26.159781,4.531201 c -0.517066,0.03702 -1.085922,0.163001 -1.712373,0.368818 -1.369462,1.027097 -4.779057,1.112392 -5.426903,3.055927 -0.550763,1.652288 0.06624,3.819147 -0.684948,5.321526 -0.677058,1.354115 -4.822952,3.157373 -3.740876,5.321526 4.058445,8.116889 19.040765,2.982979 23.920525,-1.896782 0.877667,-0.877667 1.512613,-3.808911 0.526883,-4.794642 -1.618444,-1.618443 -4.767583,-1.237462 -6.375294,-2.845172 -1.981886,-1.981888 -3.21926,-4.457662 -6.006475,-4.531201 -0.160801,-0.0042 -0.328184,-0.01234 -0.500539,0 z"
     id="path3828"
     inkscape:connector-curvature="0"
     sodipodi:nodetypes="cccsccccccsssccccsssccccccccscsssssscs" />
  <g
     id="g3833" />
</svg>

<svg xmlns="http://www.w3.org/2000/svg" viewBox="0 0 64 64"><g color="#000"><path d="m0 4v30 28l2 2h30 30l2-2v-28-30h-32-32" fill="#e4ae00"/><path d="m2 0l-2 1v3h19.563 19.563 24.875v-3l-2-1h-22.875-19.563-17.563" fill="#ffdb42"/></g><path d="m64 6l-2-2 2-1z" fill="#f2c521"/><path d="m0 3v3l2-2z" fill="#ffe067"/><path d="m32.03 12.301c.313 1.536.656 2.806.738 4.32-.263.029-.52.064-.79.132-4.318 1.08-.838 3.07-.211 4.953 1.178 3.535-1.637 4.388 2.845 6.112 8.126.423 5.892-9.408.342-11.01-.761-2.085-1.269-3.438-2.924-4.505m-10.933 2.977c-.877 1.65-.713 3.03-.395 5.03-2.587 3.825-1.874 10.934 4.11 10.09 1.99-.312 3.633-1.308 4.215-3.056.509-1.527-1.919-3.394-2.634-4.11-.946-.946.446-3.36-1.054-4.11-1.161-.581-2.167-.595-3-.237-.508-1.17-.825-2.312-1.238-3.609m27.477 5.506c.26 1.277.522 2.359.659 3.556-.293.024-.587.154-.922.263-2.898.946-2.02 2.947-4.304 6.02-1.957 2.632 1.347 4.582 3.514 5.304 6.293 2.098 6.49-6.993 3.952-10.38h.132c-.824-2.253-1.299-3.653-3.03-4.768m-38.41 9.826c-.477 2.665.437 4.16 1.765 5.322-.862 6.491 8.346 9.742 11.354 4.584.498-3.737-7.937-9.82-10.59-6.665-1.55-.625-2.083-1.912-2.529-3.24m26.16 4.531c-.517.037-1.086.163-1.712.369-1.369 1.027-4.779 1.112-5.427 3.056-.551 1.652.066 3.819-.685 5.322-.677 1.354-4.823 3.157-3.741 5.322 4.058 8.117 19.04 2.983 23.921-1.897.878-.878 1.513-3.809.527-4.795-1.618-1.618-4.768-1.237-6.375-2.845-1.982-1.982-3.219-4.458-6.01-4.531-.161-.004-.328-.012-.501 0" fill="#1d0000" fill-opacity=".387"/></svg>
